X:7875
T:Jem of Aberdeen. JC.024
M:2/4
L:1/8
Q:240
S:John Clare,Poet,Helpston. (1793-1864)
R:Misc.
O:England
A:Northamptonshire
N:
Z:P Headford
K:G
d|B>cBA|BGGG|A>BAB|cedc|B>cBA|BGGD|Eedc|BGG2|!
B>cBG|FAd2|B>cBG|FAdA|d>efA|B^cdB|A>BAG|FDDd|!
d>edB|cAAB|GEEA|F2Dd|d>edB|cAAB|GEFA|D3d|!
B>cBA|BGGG|dBBB|g3f|e>fef|dBAG|AEEF|G3|]
W:Song text exists. See Deacon.


